shields/template_usaaz_wide.svg

<?xml version="1.0" encoding="UTF-8" standalone="no"?>
<!-- Created with Inkscape (http://www.inkscape.org/) -->

<svg
   xmlns:dc="http://purl.org/dc/elements/1.1/"
   xmlns:cc="http://creativecommons.org/ns#"
   xmlns:rdf="http://www.w3.org/1999/02/22-rdf-syntax-ns#"
   xmlns:svg="http://www.w3.org/2000/svg"
   xmlns="http://www.w3.org/2000/svg"
   xmlns:sodipodi="http://sodipodi.sourceforge.net/DTD/sodipodi-0.dtd"
   xmlns:inkscape="http://www.inkscape.org/namespaces/inkscape"
   width="750"
   height="600"
   viewbox="0 0 750 600"
   id="svg2"
   sodipodi:version="0.32"
   inkscape:version="0.91 r"
   version="1.0"
   sodipodi:docname="template_usaaz_wide.svg">
  <defs
     id="defs4" />
  <sodipodi:namedview
     id="base"
     pagecolor="#ffffff"
     bordercolor="#666666"
     borderopacity="1.0"
     inkscape:pageopacity="0.0"
     inkscape:pageshadow="2"
     inkscape:zoom="0.77216061"
     inkscape:cx="668.78373"
     inkscape:cy="281.45233"
     inkscape:document-units="px"
     inkscape:current-layer="layer1"
     inkscape:window-width="1920"
     inkscape:window-height="1020"
     inkscape:window-x="0"
     inkscape:window-y="0"
     showgrid="false"
     inkscape:window-maximized="1" />
  <metadata
     id="metadata7">
    <rdf:RDF>
      <cc:Work
         rdf:about="">
        <dc:format>image/svg+xml</dc:format>
        <dc:type
           rdf:resource="http://purl.org/dc/dcmitype/StillImage" />
        <dc:title></dc:title>
      </cc:Work>
    </rdf:RDF>
  </metadata>
  <g
     inkscape:label="Layer 1"
     inkscape:groupmode="layer"
     id="layer1">
    <path
       d="M 0,50 C 0,22.38574 22.38525,1.1368684e-013 50,1.1368684e-013 L 700,1.1368684e-013 C 727.61426,1.1368684e-013 750,22.38574 750,50 L 750,550 C 750,577.61523 727.61426,600 700,600 L 50,600 C 22.38525,600 0,577.61523 0,550 L 0,50 L 0,50 z "
       id="path7" />
    <path
       id="path9"
       d="" />
    <path
       style="fill:none;stroke:#000000;stroke-opacity:1"
       d="M 449.40989,580.54924 C 449.36222,580.43863 432.93698,577.73885 412.90944,574.54975 C 392.8818,571.36063 374.79844,568.47255 372.72413,568.1318 C 370.64982,567.79106 290.53287,554.99078 194.68651,539.68675 C 98.840098,524.38274 20.15697,511.80084 19.8351,511.72701 L 19.249868,511.59275 L 19.249868,308.96378 L 19.249868,106.33482 L 78.552396,106.33482 L 137.85492,106.33482 L 137.85492,62.792587 L 137.85492,19.25034 L 434.30256,19.25034 L 730.75013,19.25034 L 730.75013,300.00034 L 730.75013,580.75034 L 590.12339,580.75034 C 512.77867,580.75034 449.45767,580.65985 449.40989,580.54924 z M 108.52878,106.65978 C 92.184827,106.62282 65.440171,106.62282 49.096209,106.65978 C 32.752248,106.69675 46.124576,106.72699 78.812499,106.72699 C 111.50041,106.72699 124.87274,106.69675 108.52878,106.65978 z "
       id="path1436" />
    <path
       style="fill:#ffffff;fill-opacity:1;stroke:none;stroke-opacity:1"
       d="M 449.51441,581.04854 C 449.46667,580.93773 433.01834,578.23315 412.96267,575.03836 C 392.90689,571.84357 374.79811,568.95034 372.72089,568.60898 C 370.64367,568.26764 290.41413,555.44456 194.4331,540.11328 C 98.452065,524.78201 19.658296,512.17771 19.336014,512.10374 L 18.75,511.96925 L 18.75,308.97938 L 18.75,105.98953 L 78.135856,105.98953 L 137.52171,105.98953 L 137.52171,62.369729 L 137.52171,18.75 L 434.38584,18.75 L 731.25,18.75 L 731.25,299.99997 L 731.25,581.25 L 590.42566,581.25 C 512.97226,581.25 449.56225,581.15935 449.51441,581.04854 z M 108.15437,106.31506 C 91.787423,106.27804 65.005146,106.27804 48.638199,106.31506 C 32.271352,106.3521 45.662391,106.38239 78.396284,106.38239 C 111.13018,106.38239 124.52122,106.3521 108.15437,106.31506 z "
       id="path2311" />
    <path
       transform="scale(1.032797,0.968244)"
       style="font-size:93.01125336px;font-style:normal;font-variant:normal;font-weight:normal;font-stretch:normal;text-align:center;line-height:125%;writing-mode:lr-tb;text-anchor:middle;font-family:Roadgeek 2014 Series E"
       d="M 266.4504,115.07355 L 260.31166,100.37777 L 233.15238,100.37777 L 227.10664,115.07355 L 214.82916,115.07355 L 241.05833,52.756008 L 252.40571,52.756008 L 278.44886,115.07355 L 266.4504,115.07355 M 246.73202,68.288887 L 237.98896,89.30943 L 255.47508,89.30943 L 246.73202,68.288887 M 327.02689,115.07355 L 316.98167,90.611588 L 300.33266,90.611588 L 300.33266,115.07355 L 289.17131,115.07355 L 289.17131,52.756008 L 317.81878,52.756008 C 320.11301,52.75607 322.06625,52.942092 323.67849,53.314075 C 325.29064,53.686182 326.90283,54.368263 328.51507,55.360323 C 331.49138,56.972576 333.84766,59.235847 335.58393,62.150144 C 337.32008,65.064547 338.18818,68.288934 338.18824,71.823315 C 338.18818,75.357782 337.28908,78.582169 335.49091,81.496485 C 333.75465,84.348861 331.27435,86.643136 328.05001,88.379318 L 339.4904,115.07355 L 327.02689,115.07355 M 327.02689,71.823315 C 327.02684,69.405068 326.22075,67.482837 324.6086,66.056617 C 322.99636,64.630495 320.7951,63.917409 318.0048,63.917358 L 300.33266,63.917358 L 300.33266,79.450237 L 318.0048,79.450237 C 320.7951,79.450273 322.99636,78.768191 324.6086,77.40399 C 326.22075,75.977856 327.02684,74.117633 327.02689,71.823315 M 352.02657,115.07355 L 352.02657,52.756008 L 363.18792,52.756008 L 363.18792,115.07355 L 352.02657,115.07355 M 375.73717,115.07355 L 375.73717,102.42402 L 411.17446,63.731336 L 377.6904,63.731336 L 377.6904,52.756008 L 424.7541,52.756008 L 424.7541,65.405538 L 389.50283,103.9122 L 424.7541,103.9122 L 424.7541,115.07355 L 375.73717,115.07355 M 487.54541,83.542732 C 487.54536,88.441352 486.92528,92.905887 485.68519,96.936353 C 484.50699,100.90485 482.80179,104.31526 480.56957,107.16759 C 478.33725,110.01994 475.60892,112.25221 472.38458,113.8644 C 469.22216,115.41459 465.65673,116.18968 461.68829,116.18968 C 457.0997,116.18968 453.13123,115.25957 449.78284,113.39934 C 446.49643,111.47712 443.7681,108.99682 441.59785,105.95844 C 439.42758,102.85808 437.81539,99.385665 436.76127,95.541184 C 435.76914,91.634735 435.27308,87.728266 435.27309,83.821766 C 435.27308,78.861202 435.86215,74.396667 437.0403,70.428146 C 438.28044,66.459714 440.04766,63.080309 442.34194,60.289919 C 444.63621,57.499639 447.39554,55.360382 450.61995,53.872143 C 453.90632,52.384025 457.59576,51.639936 461.68829,51.639873 C 465.53271,51.639936 469.03613,52.415029 472.19856,53.965154 C 475.36089,55.515401 478.08922,57.685661 480.38355,60.475942 C 482.67777,63.266331 484.44498,66.645737 485.68519,70.614168 C 486.92528,74.520681 487.54536,78.830199 487.54541,83.542732 M 476.38406,83.821766 C 476.38402,77.249009 475.11286,72.102391 472.5706,68.381898 C 470.02825,64.661498 466.40082,62.801275 461.68829,62.801223 C 456.97569,62.801275 453.28624,64.661498 450.61995,68.381898 C 447.9536,72.102391 446.62044,77.249009 446.62046,83.821766 C 446.62044,90.518601 447.9536,95.727226 450.61995,99.447657 C 453.28624,103.16812 456.97569,105.02834 461.68829,105.02833 C 464.66461,105.02834 467.0829,104.37726 468.94316,103.0751 C 470.86535,101.77295 472.35353,100.09875 473.4077,98.052488 C 474.52379,96.006259 475.29889,93.742988 475.73298,91.262667 C 476.16699,88.720385 476.38402,86.240088 476.38406,83.821766 M 542.54415,115.07355 L 512.87356,72.19536 L 512.87356,115.07355 L 501.89823,115.07355 L 501.89823,52.756008 L 512.87356,52.756008 L 541.42801,93.866982 L 541.42801,52.756008 L 552.21732,52.756008 L 552.21732,115.07355 L 542.54415,115.07355 M 614.33429,115.07355 L 608.19554,100.37777 L 581.03626,100.37777 L 574.99053,115.07355 L 562.71304,115.07355 L 588.94221,52.756008 L 600.28959,52.756008 L 626.33274,115.07355 L 614.33429,115.07355 M 594.6159,68.288887 L 585.87284,89.30943 L 603.35896,89.30943 L 594.6159,68.288887"
       id="text3205" />
    <text
       xml:space="preserve"
       style="font-style:normal;font-variant:normal;font-weight:normal;font-stretch:normal;font-size:507.73693848px;line-height:125%;font-family:'Roadgeek 2014 Series D';-inkscape-font-specification:'Roadgeek 2014 Series D, Normal';text-align:center;letter-spacing:0px;word-spacing:0px;writing-mode:lr-tb;text-anchor:middle;fill:#000000;fill-opacity:1;stroke:none;stroke-width:1px;stroke-linecap:butt;stroke-linejoin:miter;stroke-opacity:1"
       x="370.61282"
       y="470.06763"
       id="text4139"
       sodipodi:linespacing="125%"><tspan
         sodipodi:role="line"
         id="tspan4141"
         x="370.61279"
         y="470.06763"
         style="font-style:normal;font-variant:normal;font-weight:normal;font-stretch:normal;font-family:'Roadgeek 2014 Series c';-inkscape-font-specification:'Roadgeek 2014 Series c';text-align:center;text-anchor:middle">***NUMBER***</tspan></text>
  </g>
</svg>

<svg xmlns="http://www.w3.org/2000/svg" viewbox="0 0 750 600" width="750" height="600"><path d="m0 50c0-27.614 22.385-50 50-50h650c27.614 0 50 22.386 50 50v500c0 27.615-22.386 50-50 50h-650c-27.615 0-50-22.385-50-50v-500"/><path d="m449.41 580.55c-.048-.111-16.473-2.81-36.5-5.999-20.03-3.189-38.11-6.077-40.19-6.418-2.074-.341-82.19-13.14-178.04-28.445-95.85-15.304-174.53-27.886-174.85-27.96l-.585-.134v-202.63-202.63h59.3 59.3v-43.542-43.542h296.45 296.45v280.75 280.75h-140.63c-77.34 0-140.67-.09-140.71-.201zm-340.88-473.89c-16.344-.037-43.09-.037-59.43 0-16.344.037-2.972.067 29.716.067 32.688 0 46.06-.03 29.716-.067z" fill="none" stroke="#000"/><path d="m449.51 581.05c-.048-.111-16.496-2.815-36.552-6.01-20.06-3.195-38.16-6.088-40.24-6.429-2.077-.341-82.31-13.164-178.29-28.496-95.98-15.331-174.77-27.936-175.1-28.01l-.586-.134v-202.99-202.99h59.39 59.39v-43.62-43.62h296.86 296.86v281.25 281.25h-140.82c-77.45 0-140.86-.091-140.91-.201m-341.36-474.73c-16.367-.037-43.15-.037-59.52 0-16.367.037-2.976.067 29.758.067 32.734 0 46.12-.03 29.758-.067" fill="#fff"/><path transform="scale(1.0328.96824)" d="m266.45 115.07l-6.139-14.696h-27.16l-6.05 14.696h-12.277l26.23-62.32h11.347l26.04 62.32h-11.998m-19.718-46.785l-8.743 21.02h17.486l-8.743-21.02m80.29 46.785l-10.05-24.462h-16.649v24.462h-11.161v-62.32h28.647c2.294 0 4.247.186 5.86.558 1.612.372 3.224 1.054 4.837 2.046 2.976 1.612 5.333 3.876 7.07 6.79 1.736 2.914 2.604 6.139 2.604 9.673 0 3.534-.899 6.759-2.697 9.673-1.736 2.852-4.217 5.147-7.441 6.883l11.44 26.694h-12.464m0-43.25c0-2.418-.806-4.34-2.418-5.767-1.612-1.426-3.814-2.139-6.604-2.139h-17.672v15.533h17.672c2.79 0 4.992-.682 6.604-2.046 1.612-1.426 2.418-3.286 2.418-5.581m25 43.25v-62.32h11.161v62.32h-11.161m23.711 0v-12.65l35.437-38.693h-33.484v-10.975h47.06v12.65l-35.25 38.507h35.25v11.161h-49.02m111.81-31.531c0 4.899-.62 9.363-1.86 13.394-1.178 3.968-2.883 7.379-5.116 10.231-2.232 2.852-4.961 5.085-8.185 6.697-3.162 1.55-6.728 2.325-10.696 2.325-4.589 0-8.557-.93-11.905-2.79-3.286-1.922-6.01-4.403-8.185-7.441-2.17-3.1-3.782-6.573-4.837-10.417-.992-3.906-1.488-7.813-1.488-11.719 0-4.961.589-9.425 1.767-13.394 1.24-3.968 3.01-7.348 5.302-10.138 2.294-2.79 5.05-4.93 8.278-6.418 3.286-1.488 6.976-2.232 11.07-2.232 3.844 0 7.348.775 10.51 2.325 3.162 1.55 5.891 3.721 8.185 6.511 2.294 2.79 4.061 6.17 5.302 10.138 1.24 3.907 1.86 8.216 1.86 12.929m-11.161.279c0-6.573-1.271-11.719-3.813-15.44-2.542-3.72-6.17-5.581-10.882-5.581-4.713 0-8.402 1.86-11.07 5.581-2.666 3.72-4 8.867-3.999 15.44 0 6.697 1.333 11.905 3.999 15.626 2.666 3.72 6.356 5.581 11.07 5.581 2.976 0 5.395-.651 7.255-1.953 1.922-1.302 3.41-2.976 4.465-5.02 1.116-2.046 1.891-4.31 2.325-6.79.434-2.542.651-5.02.651-7.441m66.16 31.25l-29.671-42.878v42.878h-10.975v-62.32h10.975l28.554 41.11v-41.11h10.789v62.32h-9.673m71.79 0l-6.139-14.696h-27.16l-6.05 14.696h-12.277l26.23-62.32h11.347l26.04 62.32h-11.998m-19.718-46.785l-8.743 21.02h17.486l-8.743-21.02"/><text x="370.61" y="470.07" font-family="&apos;Roadgeek 2014 Series D&apos;" letter-spacing="0" word-spacing="0" text-anchor="middle" text-align="center" line-height="125%" font-size="507.74"><tspan x="370.61" y="470.07" font-family="&apos;Roadgeek 2014 Series c&apos;" text-align="center">***NUMBER***</tspan></text></svg>
